X:1
T:Title
%%score ( 1 2 ) ( 3 4 )
L:1/8
Q:1/4=75
M:6/8
K:Ab
V:1 treble nm="Strings 1, Soprano"
V:2 treble 
V:3 bass nm="Strings 1, Bass"
V:4 bass 
V:1
 z3 [CE]2 [CE] | [Ec]2 [Ec] Bc[Ed] | [Ec]2 [EA] [DF]2 [DF] | [CA]2 [CA] AB[Ec] | %4
w: 1.~Christ~ is~|mine,~ my~ heart's~ * dear~|treas ure,~ Great er~|than~ all~ earth * ly~|
 .[EB]3 [Ec]2 [Ed] | [Ee]2 [CA] AG[FA] | [=Ec]2 [Ec] [FB]2 [FB] | [Fd]2 [Fd] GA[EB] | %8
w: store,~ Filled~ with~|His~ un told~ * a|bun dance,~ Yearns~ not~|now~ my~ heart~ * for~|
 [EA]3 [Ec]2 [CE] | [CE][DF][DG] [CA]2 [DB] | [CA]2 [EG] B=A[EB] | [Ed]2 [EB] Be[Ed] | %12
w: more.~ * *||||
 [Ec]3 [Ec]2 [Ec] | [Ec][DB][Ec] [CA]2 [Ec] | [DB]2 [Fd] [Ec]2 [EA] | [EA]2 [Ec] [DB]2 [DB] | %16
w: ||||
 .[CA]3 z3 |] %17
w: |
V:2
 x6 | z3 .E3 | x6 | z3 .E3 | x6 | z3 .C3 | x6 | z3 .E3 | x6 | x6 | z3 .E3 | z3 .E3 | x6 | x6 | x6 | %15
 x6 | x6 |] %17
V:3
 z3 [A,,A,]2 [A,,A,] | z3 .G,3 | [A,,A,]2 [C,A,] [D,A,]2 [D,A,] | z3 .A,3 | .[E,G,]3 A,2 [A,B,] | %5
 [A,C]2 A, [F,A,]2 [F,A,] | [C,G,]2 [C,G,] [D,F,]2 [D,A,] | z3 .B,3 | [A,,C]3 [A,,A,]2 [A,,A,] | %9
 [A,,A,]2 [A,,A,] [A,,A,]2 [A,,A,] | z3 .G,3 | z3 .G,3 | A,3 [A,,A,]2 [A,,A,] | %13
 [A,,A,]2 [A,,A,] [A,,A,]2 [A,,A,] | [D,F,]2 [D,A,] [E,A,]2 [E,C] | [E,C]2 [E,A,] [E,G,]2 [E,G,] | %16
 .[A,,A,]3 z3 |] %17
V:4
 x6 | [A,,A,]2 [A,,A,] E,-[E,A,][E,B,] | x6 | [A,,A,]2 [A,,A,] C,B,,[A,,A,] | x6 | x6 | x6 | %7
 [B,,B,]2 [B,,B,] E,-[E,C][E,D] | x6 | x6 | [E,A,]2 [E,B,] E,-[E,_G,][E,=G,] | %11
 [E,B,]2 [E,G,] E,-[E,C][E,B,] | x6 | x6 | x6 | x6 | x6 |] %17

